X:1
T:Title
%%score { 1 | 2 }
L:1/8
M:3/4
K:C
V:1 treble nm="Grand Piano"
V:2 bass 
V:1
 z2 z2[Q:1/4=94] EE | E3 F DE | C2 C2 B,C | D3 D FF |[M:2/4] E4 |[M:1/4] EE |[M:3/4] E3 F DE | %7
 C2 C2 GG | F3 F ED |[M:2/4] C4 |[M:1/4] GG |[M:3/4] d3 d ed | [Fd]2 [Ec]2 [Ec][GB] | A3 d cA | %14
[M:2/4] [EG]4 |[M:1/4] [EG][EG] |[M:3/4] [Ec]3 [GB] Ac | G2 E2 [EG][EG] | [FG]3 [FA] [DF][B,G] | %19
[M:2/4] [CE]4 |[M:1/4] [EG][EG] |[M:3/4] [Ec]3 [GB] Ac | G2 [Ec]2 [Ge][Ge] | [^Fe]3 [Fd] dG | %24
[M:2/4] [Ec]4 |] %25
V:2
 z2 z2 G,G, | G,3 A, F,G, | E,2 E,2 D,E, | F,3 F, A,^G, |[M:2/4] G,4 |[M:1/4] G,G, | %6
[M:3/4] G,3 A, F,G, | E,2 E,2 B,_B, | A,3 ^G, =G,F, |[M:2/4] E,4 | %10
[M:1/4][K:treble] [G,B,F][G,B,F] |[M:3/4] [G,B,F]3 [G,B,F] [G,CG][G,B,F] | %12
 [C,C]2 [C,G,]2 [C,G,][E,C] | [F,CF]3 [F,A,F] [F,A,F][F,CF] |[M:2/4] [C,C]4 |[M:1/4] [C,C][C,C] | %16
[M:3/4] [C,G,]3 [E,C][K:treble] [F,CF][A,CF] | [CE]2[K:bass] [C,G,C]2 [C,C][C,C] | %18
 [D,B,]3 [D,B,] [G,,G,][G,,G,] |[M:2/4] [C,G,]4 |[M:1/4] [C,C][C,C] | %21
[M:3/4] [C,G,]3 [E,C][K:treble] [F,CF][A,CF] | [CE]2[K:bass] [C,G,]2 [C,C][C,C] | %23
 [D,A,]3 [D,A,][K:treble] [G,B,F][G,F] |[M:2/4][K:bass] [C,G,]4 |] %25

